icons/svg/icons8/coat.svg

<?xml version="1.0" encoding="utf-8"?>
<!-- Generator: Adobe Illustrator 15.0.0, SVG Export Plug-In . SVG Version: 6.00 Build 0)  -->
<!DOCTYPE svg PUBLIC "-//W3C//DTD SVG 1.1//EN" "http://www.w3.org/Graphics/SVG/1.1/DTD/svg11.dtd">
<svg version="1.1" id="Layer_1" xmlns="http://www.w3.org/2000/svg" xmlns:xlink="http://www.w3.org/1999/xlink" x="0px" y="0px"
	 width="26px" height="26px" viewBox="0 0 26 26" enable-background="new 0 0 26 26" xml:space="preserve">
<rect fill="none" width="26" height="26"/>
<path fill="#333333" d="M20,2c0,0-2.176,0.588-2.176,3.647S20,10.118,20,10.118s2,2.99,2,3.646S22,22,22,22h4c0,0,0-7.628,0-8.679
	S23.637,7.137,23.354,6C22.706,3.412,20,2,20,2z"/>
<path fill="#333333" d="M6,2c0,0,2.176,0.588,2.176,3.647S6,10.118,6,10.118s-2,2.99-2,3.646S4,22,4,22H0c0,0,0-7.628,0-8.679
	S2.363,7.137,2.647,6C3.294,3.412,6,2,6,2z"/>
<path fill="#333333" d="M20,2l-2.967-0.742L16,0l-3,5.071L10,0L8.986,1.254L6,2c0,0,1.5,5.5,0,8v16h14V13.118v-3
	C18.824,6.824,20,2,20,2z M10,11.083c-0.599,0-1.083-0.485-1.083-1.083S9.401,8.917,10,8.917S11.083,9.402,11.083,10
	S10.599,11.083,10,11.083z M10,16.084c-0.599,0-1.083-0.486-1.083-1.084S9.401,13.917,10,13.917s1.083,0.486,1.083,1.083
	S10.599,16.084,10,16.084z M10,21.084c-0.599,0-1.083-0.486-1.083-1.084S9.401,18.916,10,18.916s1.083,0.486,1.083,1.084
	S10.599,21.084,10,21.084z M16,11.083c-0.599,0-1.084-0.485-1.084-1.083S15.401,8.917,16,8.917S17.084,9.402,17.084,10
	S16.599,11.083,16,11.083z M16,16.084c-0.599,0-1.084-0.486-1.084-1.084s0.485-1.083,1.084-1.083s1.084,0.486,1.084,1.083
	S16.599,16.084,16,16.084z M16,21.084c-0.599,0-1.084-0.486-1.084-1.084s0.485-1.084,1.084-1.084s1.084,0.486,1.084,1.084
	S16.599,21.084,16,21.084z"/>
</svg>

<svg width="26" height="26" viewBox="0 0 26 26" fill="none" xmlns="http://www.w3.org/2000/svg">
<path d="M20.0002 2C20.0002 2 17.8242 2.588 17.8242 5.647C17.8242 8.706 20.0002 10.118 20.0002 10.118C20.0002 10.118 22.0002 13.108 22.0002 13.764C22.0002 14.42 22.0002 22 22.0002 22H26.0002C26.0002 22 26.0002 14.372 26.0002 13.321C26.0002 12.27 23.6372 7.137 23.3542 6C22.7062 3.412 20.0002 2 20.0002 2Z" fill="#333333"/>
<path d="M6 2C6 2 8.176 2.588 8.176 5.647C8.176 8.706 6 10.118 6 10.118C6 10.118 4 13.108 4 13.764C4 14.42 4 22 4 22H0C0 22 0 14.372 0 13.321C0 12.27 2.363 7.137 2.647 6C3.294 3.412 6 2 6 2Z" fill="#333333"/>
<path d="M20 2L17.033 1.258L16 0L13 5.071L10 0L8.986 1.254L6 2C6 2 7.5 7.5 6 10V26H20V13.118V10.118C18.824 6.824 20 2 20 2ZM10 11.083C9.401 11.083 8.917 10.598 8.917 10C8.917 9.402 9.401 8.917 10 8.917C10.599 8.917 11.083 9.402 11.083 10C11.083 10.598 10.599 11.083 10 11.083ZM10 16.084C9.401 16.084 8.917 15.598 8.917 15C8.917 14.402 9.401 13.917 10 13.917C10.599 13.917 11.083 14.403 11.083 15C11.083 15.597 10.599 16.084 10 16.084ZM10 21.084C9.401 21.084 8.917 20.598 8.917 20C8.917 19.402 9.401 18.916 10 18.916C10.599 18.916 11.083 19.402 11.083 20C11.083 20.598 10.599 21.084 10 21.084ZM16 11.083C15.401 11.083 14.916 10.598 14.916 10C14.916 9.402 15.401 8.917 16 8.917C16.599 8.917 17.084 9.402 17.084 10C17.084 10.598 16.599 11.083 16 11.083ZM16 16.084C15.401 16.084 14.916 15.598 14.916 15C14.916 14.402 15.401 13.917 16 13.917C16.599 13.917 17.084 14.403 17.084 15C17.084 15.597 16.599 16.084 16 16.084ZM16 21.084C15.401 21.084 14.916 20.598 14.916 20C14.916 19.402 15.401 18.916 16 18.916C16.599 18.916 17.084 19.402 17.084 20C17.084 20.598 16.599 21.084 16 21.084Z" fill="#333333"/>
</svg>
